actions/22x22-light/view-bank.svg

<svg viewBox="0 0 22 22" xmlns="http://www.w3.org/2000/svg"><path d="m12.113825 3a2.0009771 2.0009771 0 0 0 -2.000977 2.0009771 2.0009771 2.0009771 0 0 0 2.000977 2.000977 2.0009771 2.0009771 0 0 0 2.000977-2.000977 2.0009771 2.0009771 0 0 0 -2.000977-2.0009771zm-5.6225369 2.4829832c-.2640376.0007337-.505154.0163-.7112849.036476-.3588853.0345022-.5712747.415653-.4142647.7399448l.6982576 1.4329914c-.7762275.6761887-1.3614655 1.5027005-1.6909298 2.4256636h-.8519785c-.2863415-.001742-.5210878.232123-.5210878.518482v1.909787c0 .19318.1080153.368862.278782.458557l1.104706.575802c.4622993 1.274735 1.4209223 2.370117 2.6836021 3.123922v1.690929c0 .332914.2715313.604462.6044617.604462h1.5476312c.2397511 0 .4582976-.143101.5549585-.362156l.3882095-.89106c.334636.04145.672902.06253 1.021332.06253.548563 0 1.082211-.0528 1.594529-.151115v.737338c0 .332912.271548.60446.604462.60446h1.542419c.222511 0 .426218-.121208.531509-.317864.821112-1.542129 1.714609-3.09084 2.373555-4.705422.332878-.817623.452843-1.685531.380394-2.532483-.117317-1.36619-.739358-2.6789543-1.779514-3.6345879-.607185-.5588897-1.310556-.9957461-2.066112-1.3131412-.09832.1483526-.211045.2892078-.338708.4168702-.16906.169061-.358385.3143411-.565381.4298976.219066.072379.42866.1552918.630517.2501221.205069.096609.285868.3478889.171959.5445366-.100057.1746193-.319205.2425352-.500244.1563264-1.376534-.6503261-2.913207-.5264869-3.58769-.4246866-.1983708.0293289-.3885254-.0968856-.4351081-.2918091v-.00261c-.053508-.2207845.0962354-.4397048.3204681-.4741882.122472-.018892.269477-.0374347.435109-.0521086-.050071-.0432872-.099308-.0888932-.145905-.1354829-.238046-.2380462-.4238135-.5154257-.5549571-.825924-.0137554-.0328321-.0288815-.0687798-.041685-.1016121-.205268.0344836-.4086954.0775918-.607068.1276665-.8668035-.5046495-1.8628504-.629749-2.6549438-.6279082v-.00261zm.6748086 3.983716c.4295216 0 .776421.3468993.776421.7764208-.0000191.42952-.3468994.776421-.776421.776421s-.7764208-.346918-.7764208-.776421c0-.4295215.3468992-.7764208.7764208-.7764208zm4.4579053.6982578h.458557v.53151c.281682.04426.508298.146396.677415.30744.172967.156937.287609.323241.343917.500245l-.495032.21104c-.02806-.100568-.08975-.195402-.182381-.283992-.08854-.09246-.20305-.156664-.343919-.192802v1.357434c.350099.144866.622338.308782.815504.489822.197205.177058.294414.413497.294414.711284 0 .338012-.104598.607902-.317864.805081-.213285.197144-.478181.319131-.792054.367368v.531509h-.458557v-.521089c-.285717-.040238-.550614-.154771-.792053-.343917-.237423-.189127-.392489-.440275-.468979-.758183l.495034-.200618c.04829.193143.139342.359375.276176.500245.14085.140852.304711.229442.489822.265753v-1.448623c-.01191 0-.02393-.003-.03126-.01042-.72032-.281682-1.078652-.685782-1.078652-1.208923 0-.27363.101035-.515063.302232-.724311.201214-.213302.469672-.335272.807685-.367368v-.518482zm0 1.055203c-.169007.02808-.303327.09229-.403843.192802-.100704.09657-.151115.217251-.151115.362156 0 .253527.184756.466611.554958.635727zm.458557 1.961895v1.250611c.169023-.03624.303328-.106496.403844-.21104.100703-.108643.151115-.246579.151115-.41166 0-.140851-.04546-.256498-.138089-.349129-.09256-.09665-.23176-.190192-.41687-.278782z" fill="#4d4d4d"/></svg>

<?xml version="1.0" encoding="UTF-8" standalone="no"?>
<svg
   xmlns:dc="http://purl.org/dc/elements/1.1/"
   xmlns:cc="http://creativecommons.org/ns#"
   xmlns:rdf="http://www.w3.org/1999/02/22-rdf-syntax-ns#"
   xmlns:svg="http://www.w3.org/2000/svg"
   xmlns="http://www.w3.org/2000/svg"
   xmlns:sodipodi="http://sodipodi.sourceforge.net/DTD/sodipodi-0.dtd"
   xmlns:inkscape="http://www.inkscape.org/namespaces/inkscape"
   viewBox="0 0 22 22"
   id="svg2"
   version="1.1"
   inkscape:version="0.91 r13725"
   sodipodi:docname="view-bank.svg">
  <metadata
     id="metadata10">
    <rdf:RDF>
      <cc:Work
         rdf:about="">
        <dc:format>image/svg+xml</dc:format>
        <dc:type
           rdf:resource="http://purl.org/dc/dcmitype/StillImage" />
      </cc:Work>
    </rdf:RDF>
  </metadata>
  <sodipodi:namedview
     pagecolor="#ffffff"
     bordercolor="#666666"
     borderopacity="1"
     objecttolerance="10"
     gridtolerance="10"
     guidetolerance="10"
     inkscape:pageopacity="0"
     inkscape:pageshadow="2"
     inkscape:window-width="640"
     inkscape:window-height="480"
     id="namedview8"
     showgrid="false"
     inkscape:zoom="20.473955"
     inkscape:cx="10.34431"
     inkscape:cy="8.95497"
     inkscape:current-layer="svg2" />
  <defs
     id="defs3051">
    <style
       type="text/css"
       id="current-color-scheme">
      .ColorScheme-Text {
        color:#4d4d4d
      }
      </style>
  </defs>
  <path
     style="color:#4d4d4d;fill:currentColor;fill-opacity:1;stroke:none"
     d="m 12.113825,3 a 2.0009771,2.0009771 0 0 0 -2.000977,2.0009771 2.0009771,2.0009771 0 0 0 2.000977,2.000977 2.0009771,2.0009771 0 0 0 2.000977,-2.000977 A 2.0009771,2.0009771 0 0 0 12.113825,3 Z M 6.4912881,5.4829832 c -0.2640376,7.337e-4 -0.505154,0.0163 -0.7112849,0.036476 C 5.4211179,5.5539614 5.2087285,5.9351122 5.3657385,6.259404 L 6.0639961,7.6923954 C 5.2877686,8.3685841 4.7025306,9.1950959 4.3730663,10.118059 l -0.8519785,0 C 3.2347463,10.116317 3,10.350182 3,10.636541 l 0,1.909787 c 0,0.19318 0.1080153,0.368862 0.278782,0.458557 l 1.104706,0.575802 c 0.4622993,1.274735 1.4209223,2.370117 2.6836021,3.123922 l 0,1.690929 C 7.0670901,18.728452 7.3386214,19 7.6715518,19 l 1.5476312,0 c 0.2397511,0 0.4582976,-0.143101 0.5549585,-0.362156 l 0.3882095,-0.89106 c 0.334636,0.04145 0.672902,0.06253 1.021332,0.06253 0.548563,0 1.082211,-0.0528 1.594529,-0.151115 l 0,0.737338 c 0,0.332912 0.271548,0.60446 0.604462,0.60446 l 1.542419,0 c 0.222511,0 0.426218,-0.121208 0.531509,-0.317864 0.821112,-1.542129 1.714609,-3.09084 2.373555,-4.705422 C 18.163035,13.159088 18.283,12.29118 18.210551,11.444228 18.093234,10.078038 17.471193,8.7652737 16.431037,7.8096401 15.823852,7.2507504 15.120481,6.813894 14.364925,6.4964989 c -0.09832,0.1483526 -0.211045,0.2892078 -0.338708,0.4168702 -0.16906,0.169061 -0.358385,0.3143411 -0.565381,0.4298976 0.219066,0.072379 0.42866,0.1552918 0.630517,0.2501221 0.205069,0.096609 0.285868,0.3478889 0.171959,0.5445366 C 14.163255,8.3125447 13.944107,8.3804606 13.763068,8.2942518 12.386534,7.6439257 10.849861,7.7677649 10.175378,7.8695652 9.9770072,7.8988941 9.7868526,7.7726796 9.7402699,7.5777561 l 0,-0.00261 C 9.6867619,7.3543616 9.8365053,7.1354413 10.060738,7.1009579 10.18321,7.0820659 10.330215,7.0635232 10.495847,7.0488493 10.445776,7.0055621 10.396539,6.9599561 10.349942,6.9133664 10.111896,6.6753202 9.9261285,6.3979407 9.7949849,6.0874424 9.7812295,6.0546103 9.7661034,6.0186626 9.7532999,5.9858303 9.5480319,6.0203139 9.3446045,6.0634221 9.1462319,6.1134968 8.2794284,5.6088473 7.2833815,5.4837478 6.4912881,5.4855886 l 0,-0.00261 z m 0.6748086,3.983716 c 0.4295216,0 0.776421,0.3468993 0.776421,0.7764208 -1.91e-5,0.42952 -0.3468994,0.776421 -0.776421,0.776421 -0.4295216,0 -0.7764208,-0.346918 -0.7764208,-0.776421 0,-0.4295215 0.3468992,-0.7764208 0.7764208,-0.7764208 z m 4.4579053,0.6982578 0.458557,0 0,0.53151 c 0.281682,0.04426 0.508298,0.146396 0.677415,0.30744 0.172967,0.156937 0.287609,0.323241 0.343917,0.500245 l -0.495032,0.21104 c -0.02806,-0.100568 -0.08975,-0.195402 -0.182381,-0.283992 -0.08854,-0.09246 -0.20305,-0.156664 -0.343919,-0.192802 l 0,1.357434 c 0.350099,0.144866 0.622338,0.308782 0.815504,0.489822 0.197205,0.177058 0.294414,0.413497 0.294414,0.711284 0,0.338012 -0.104598,0.607902 -0.317864,0.805081 -0.213285,0.197144 -0.478181,0.319131 -0.792054,0.367368 l 0,0.531509 -0.458557,0 0,-0.521089 C 11.338285,14.939569 11.073388,14.825036 10.831949,14.63589 10.594526,14.446763 10.43946,14.195615 10.36297,13.877707 l 0.495034,-0.200618 c 0.04829,0.193143 0.139342,0.359375 0.276176,0.500245 0.14085,0.140852 0.304711,0.229442 0.489822,0.265753 l 0,-1.448623 c -0.01191,0 -0.02393,-0.003 -0.03126,-0.01042 -0.72032,-0.281682 -1.078652,-0.685782 -1.078652,-1.208923 0,-0.27363 0.101035,-0.515063 0.302232,-0.724311 0.201214,-0.213302 0.469672,-0.335272 0.807685,-0.367368 l 0,-0.518482 z m 0,1.055203 c -0.169007,0.02808 -0.303327,0.09229 -0.403843,0.192802 -0.100704,0.09657 -0.151115,0.217251 -0.151115,0.362156 0,0.253527 0.184756,0.466611 0.554958,0.635727 l 0,-1.190685 z m 0.458557,1.961895 0,1.250611 c 0.169023,-0.03624 0.303328,-0.106496 0.403844,-0.21104 0.100703,-0.108643 0.151115,-0.246579 0.151115,-0.41166 0,-0.140851 -0.04546,-0.256498 -0.138089,-0.349129 -0.09256,-0.09665 -0.23176,-0.190192 -0.41687,-0.278782 z"
     id="path3197"
     inkscape:connector-curvature="0" />
</svg>
